X: 24378
T: Love-Links
R: jig
M: 6/8
K: Amajor
|:"A"ecA AGA|"A"AGA cd^d|"A"ecA AGA|"B7"FBA "E"GFE|
"A"ecA AGA|"A"AGA cde|"D"fga "A"edc|"B7"BcB "E"BGE:|
|:"A"cde efe|"A"efe edc|"D"def fgf|"D"fgf "E7"fed|
"A"cde "D"efe|"A"efe efg|"D"agf "A"edc|"B7"BcB "E"BGE|
"A"cde "C#m"efe|"E"efe "A"edc|"D"def "Bm"fgf|"F#m"fgf "E7"fed|
"A"cde "F#m"efe|"E"efe "C#m"efg|"D"agf "A"edc|"B7"BcB "E"BGE||"A"A3

